X: 1
T: Sasha  [Dm]
O: Russia
B: "Ska' Vi Danse", Claus J\orgensen (Edition Wilhelm Hansen, Copenhagen)
M: 2/4
L: 1/8
K: Dm
"A"| "Dm"AA z2 | AA z2 | "A7"A2 A2 | A2 z2 \
"B"|: "Dm"AA AF | AA AF | "A7"EE A>G | "Dm"FD D2 :|
w: Sa-sha, Sa-sha, ras dva tri...
w: Sa-sha, Sa-sha, one two three...
"C"|: "Gm"B2 B2 | "Dm"A2 A2 | "A7"AG FE | "Dm"D2 D2 :|[K:D]\
"D"|: "D"F2 A2 | d3 c | dc BA |
   | "Em"G3 F | "A7"E2 G2 | c3 B \
   |1 cB AG | "D"F3 E :|2 "A7"cA Bc | "D"d2 d2 |]

%%sep 2 1 500
%%sep 1 1 500

